X: 8
T: The Abbey
R: reel
M: 4/4
L: 1/8
K: Edor
|: F | E3F E2DB | E2DE FAAF | E3F EDBc | D3E FAAF |
E3F E2DB | E2DE FAAF | E3F EDBc | D3E FAAd||
|:Bd d2 e2fe|defd edBA|Bd d2 e2de|fdec dBAd|
Bd d2 edfd|edfd edBA|Bddf e2de|fdec dBAF||


Tune 477	Setting 13368

